X:115
T:Go and 'List for a Sailor
R:hp 32 reel
O:England
M:4/4
K:G
|:"Em"E2EF G2A2|B2e2 B2>^c2|"G"d2d2 d2FG|"D"ABAF D2F2|
"Em"E2EF G2A2|B2e2 B2>^c2|"D"d2F2 A2GF|"Em"E4 E4:|
|:"Em"e2e2 e2fe|"G"d2B2 B2^c2|"D"d2d2 d2FG|"Bm"ABAF D2F2|
"Em"E2EF G2A2|B2e2 B2>^c2|"D"d2F2 A2GF|"Em"E4 E4:|

